assets/img/braze_icons/arrow-down-right.svg

<svg fill="none" height="24" viewBox="0 0 24 24" width="24" xmlns="http://www.w3.org/2000/svg"><path d="m7.70711 6.29289c-.39053-.39052-1.02369-.39052-1.41422 0-.39052.39053-.39052 1.02369 0 1.41422l8.29291 8.29289h-7.5858c-.55228 0-1 .4477-1 1s.44772 1 1 1h10c.5523 0 1-.4477 1-1v-10c0-.55228-.4477-1-1-1s-1 .44772-1 1v7.5858z" fill="#801ed7"/></svg>

<svg width="24" height="24" viewBox="0 0 24 24" fill="none" xmlns="http://www.w3.org/2000/svg">
<path d="M7.70711 6.29289C7.31658 5.90237 6.68342 5.90237 6.29289 6.29289C5.90237 6.68342 5.90237 7.31658 6.29289 7.70711L14.5858 16H7C6.44772 16 6 16.4477 6 17C6 17.5523 6.44772 18 7 18H17C17.5523 18 18 17.5523 18 17V7C18 6.44772 17.5523 6 17 6C16.4477 6 16 6.44772 16 7V14.5858L7.70711 6.29289Z" fill="#801ED7"/>
</svg>
